images/default/keycdn.svg

<svg height="640" viewBox="0 0 2200 640" width="2200" xmlns="http://www.w3.org/2000/svg"><path d="m0 0h2200v640h-2200z" fill="none"/><g fill="#fff"><path d="m66.571 515.077c6.222.258 12.53 1.131 18.408 3.284l-.001-.055.888.319 77.475-75.58 2.843 3.791c4.029 5.449 8.293 10.425 12.794 15.401l1.659 1.895c1.185 1.184 2.132 2.369 3.317 3.554l1.895 1.896 1.896 1.895 1.658 1.659 1.896 1.895 1.658 1.659 2.133 1.895 1.895 1.659c36.014 30.563 81.03 47.858 128.416 49.043 39.093.948 77.237-9.003 110.645-28.668l5.923 6.16c6.87 7.345 13.978 14.69 20.85 22.035-41.226 26.535-89.085 39.803-138.367 38.619-55.441-1.422-108.275-21.324-150.685-56.863l.235-.474-49.71 49.001c1.841 5.795 2.574 11.87 2.651 17.931 0 34.226-27.745 61.972-61.971 61.972s-61.972-27.746-61.972-61.972 27.746-61.971 61.972-61.971z"/><path d="m540.294 195.455c24.405 40.041 36.487 86.242 35.302 133.155-1.42 57.335-22.981 112.066-60.89 154.95l.238.238 30.563 32.458c12.319-1.658 24.64 2.606 33.17 11.609 14.453 15.401 13.978 39.568-1.422 54.258-15.4 14.452-39.567 13.978-54.256-1.422-8.53-9.004-12.084-21.561-9.715-33.644-14.215-15.164-39.33-41.936-53.783-57.1l-3.079-3.317 3.554-2.842c9.239-7.345 17.769-15.401 25.587-24.405 32.46-36.487 50.704-82.925 51.889-131.732.947-36.96-7.82-73.211-25.589-105.196z"/><path d="m108.579 50.632c10.892-.161 21.1 4.137 28.7 11.906 8.529 9.004 12.083 21.561 9.714 33.645l58.759 61.601-3.554 2.842c-9.241 7.345-17.77 15.401-25.589 24.405-32.458 36.486-50.702 82.925-52.124 131.732-.948 36.96 7.819 73.211 25.589 105.433l-28.196 27.483c-24.64-40.278-36.959-86.479-35.539-133.864 1.223-57.04 23.456-112.137 60.783-155.064l-32.352-33.768c-12.319 1.658-24.64-2.606-33.17-11.609-14.451-15.4-13.978-39.568 1.422-54.257 5.994-5.623 13.72-9.25 21.887-10.224 1.218-.145 2.446-.174 3.67-.261z"/><path d="m603.003 1.416c34.226 0 61.971 27.745 61.971 61.971s-27.745 61.972-61.971 61.972c-6.586.073-13.067-1.139-19.332-3.087l-.018.068-.949-.333-84.11 79.846-2.842-3.791c-4.501-5.923-9.477-11.847-14.69-17.297l-.948-1.184-2.606-2.606-.473-.474-1.659-1.659-.475-.473-2.132-2.132-1.657-1.422-1.659-1.422-2.132-1.895-1.66-1.422-2.132-1.896c-35.776-30.089-80.555-47.148-127.466-48.333-39.094-.947-77.239 8.767-110.409 28.669l-27.01-28.195c41.225-26.536 89.084-39.804 138.366-38.619 55.441 1.421 108.275 21.323 150.687 57.099h.473l55.7-52.879c-1.963-5.981-2.759-12.26-2.839-18.535 0-34.226 27.746-61.971 61.972-61.971z"/><path d="m332.896 139.756c7.002.031 13.986.572 20.936 1.384 99.983 12.557 170.824 103.774 158.505 203.758-12.558 99.983-103.775 170.825-203.758 158.505-99.985-12.558-170.826-103.775-158.505-203.758 11.927-92.75 89.857-159.565 182.822-159.889zm-2.749 78.304c-40.475 3.239-69.764 33.857-70.792 74.536.733 29.016 15.593 53.509 41.506 66.855l-14.082 66.216h94.416l-14.063-66.227c25.766-13.994 41.078-37.139 41.488-66.844-.549-41.98-33.035-73.581-74.633-74.633zm1.413-.393h-.236l.118.002z"/><path d="m818.88 233.646c-4.6 0-7.82.92-13.34 8.28l-76.36 99.36 33.12-186.3c1.38-6.9-2.3-9.2-7.82-9.2h-69c-8.28 0-10.58 4.14-11.5 9.2l-59.34 336.26c-1.38 7.36 3.22 10.12 8.28 10.12h69c5.06 0 10.12-5.06 11.04-10.12l18.4-104.88 40.02 104.88c2.76 7.36 6.44 10.12 11.5 10.12h82.8c5.98 0 8.28-5.52 5.98-10.12l-58.88-128.8 104.88-119.14c3.68-3.68 3.22-9.66-3.22-9.66zm320.22 94.76c0-54.74-31.28-98.9-97.98-98.9-76.82 0-129.26 34.04-144.44 125.12l-5.06 30.36c-1.38 8.28-1.84 16.1-1.84 23.46 0 65.32 50.6 97.06 101.66 97.06 38.64 0 69.92-4.6 100.74-14.26 7.82-2.3 10.12-5.52 11.5-12.88l7.36-41.4c0-.92 0-1.38 0-1.84 0-4.14-2.76-5.98-6.9-5.98-.92 0-1.38 0-1.84 0-17.48 1.84-63.94 3.68-88.32 3.68-23 0-37.72-3.22-37.72-26.22 0-4.14.46-8.74 1.38-14.26h143.06c5.52 0 10.58-4.14 11.5-10.12l4.6-27.6c1.38-8.74 2.3-17.48 2.3-26.22zm-82.8-3.22c0 5.52-.92 11.96-2.3 18.4h-68.08c5.52-26.22 16.56-45.54 42.32-45.54 20.7 0 28.06 11.04 28.06 27.14zm392.44-84.64c0-3.68-4.14-6.9-8.28-6.9h-75.9c-5.06 0-9.66 3.68-11.5 8.74l-65.78 166.52h-3.68c-2.76 0-3.22-2.3-3.68-7.82l-8.28-158.24c-.46-5.06-2.3-9.2-7.36-9.2h-74.06c-7.82 0-11.5 3.68-11.5 8.74v1.38l26.68 218.96c2.76 23.46 14.72 31.74 36.34 31.74h5.98l-6.44 15.18c-5.52 13.34-15.18 17.48-28.06 17.48-17.48 0-45.08-2.76-62.1-3.68h-.46c-5.52 0-11.04 4.6-11.96 9.66l-7.82 44.62v1.38c0 4.14 4.14 5.52 8.74 7.36 11.96 4.6 42.32 8.28 60.72 8.28 72.22 0 98.44-28.52 120.98-77.74l126.5-273.24c.46-.92.92-2.3.92-3.22z"/><path d="m1653.14 244.226c0-4.6-2.76-5.98-7.82-7.36-12.42-3.22-34.5-7.36-61.64-7.36-70.84 0-116.38 35.42-131.1 120.98l-5.98 34.5c-1.38 9.2-2.3 17.94-2.3 26.22 0 53.82 31.28 94.3 90.62 94.3 27.14 0 48.3-3.68 64.4-7.36 6.44-1.38 10.12-3.68 11.04-9.66l9.2-51.52c0-.46 0-.92 0-1.84 0-4.14-3.22-6.9-7.36-6.9-.46 0-.46 0-.92 0-16.1.92-30.82 2.76-53.36 2.76-15.64 0-24.84-5.52-24.84-26.22 0-5.52.46-11.96 1.84-19.78l5.98-34.5c6.44-38.18 19.78-46.46 39.56-46.46 22.54 0 36.34 2.3 51.98 3.22h.92c5.06 0 9.66-3.68 10.58-8.74l9.2-51.98c0-.92 0-1.38 0-2.3zm287.1-90.62c0-4.6-4.14-7.82-8.74-7.82h-68.54c-5.06 0-9.66 4.14-10.58 9.2l-13.8 77.74c-9.2-1.38-24.84-3.22-32.2-3.22-83.72 0-125.58 34.96-140.76 120.06l-6.44 35.88c-1.38 8.28-2.3 16.1-2.3 23.46 0 56.58 39.1 96.6 102.12 96.6 41.4 0 80.5-6.44 105.34-11.5 14.72-3.22 17.02-5.98 18.4-14.72l57.5-324.3c0-.46 0-.92 0-1.38zm-114.54 150.88-22.08 126.04c-8.74 1.38-18.4 2.3-31.74 2.3-19.78 0-26.68-11.5-26.68-29.44 0-5.52.46-11.5 1.84-17.94l6.44-35.88c4.6-26.68 15.64-46.92 41.4-46.92 11.04 0 21.62.92 30.82 1.84zm370.82 3.22c0-51.52-21.16-78.2-72.22-78.2-17.02 0-42.32 4.14-74.52 25.3l2.3-11.96c1.38-6.9-1.84-9.2-7.82-9.2h-63.02c-5.06 0-9.66 4.14-10.58 9.2l-44.16 248.4c-.92 6.44 4.14 10.12 10.58 10.12h65.78c6.9 0 11.5-4.6 12.42-10.12l31.28-178.02c8.28-4.6 25.3-10.12 39.1-10.12 15.64 0 21.62 3.68 21.62 17.94 0 7.82-1.84 15.64-3.22 23.46l-25.76 146.74c-.92 4.6 0 10.12 7.82 10.12h69c5.52 0 10.58-5.06 11.5-10.12l25.3-143.52c2.3-12.88 4.6-28.06 4.6-40.02z"/><path d="m1826.663 596.957c0-1.251-.834-2.085-2.224-2.085h-12.371c-1.529 0-3.058 1.112-3.336 2.641l-2.641 15.707v.556c0 1.251.834 2.224 2.224 2.224h12.371c1.529 0 3.058-1.251 3.336-2.78l2.641-15.707c0-.139 0-.278 0-.556zm78.519-60.326c-18.07 0-32.804 7.506-37.669 33.777l-2.363 12.927c-.417 2.502-.695 4.865-.695 7.089 0 15.846 10.703 26.688 26.549 26.688 8.479 0 14.873-.973 18.209-1.807 2.78-.556 3.058-1.39 3.475-3.614l1.668-9.035c.278-1.807-.417-2.363-2.502-2.085-5.004.556-9.174.973-18.209.973-5.699 0-10.842-1.807-10.842-11.259 0-1.946.139-4.309.695-6.95l2.363-12.927c2.641-14.456 10.008-18.209 16.541-18.209 9.035 0 13.344.417 17.792.973 2.224.417 2.919-.556 3.197-2.085l1.668-9.035c.417-2.363-.139-3.058-2.363-3.614-3.058-.834-9.035-1.807-17.514-1.807zm112.018 27.383c0-14.595-8.757-27.383-27.8-27.383-21.823 0-35.167 11.815-39.337 34.611l-2.085 11.259c-.417 2.224-.556 4.448-.556 6.672 0 14.595 8.896 27.939 27.8 27.939 21.823 0 34.889-11.676 39.198-34.611l2.085-11.259c.417-2.363.695-4.865.695-7.228zm-18.487 1.112c0 1.807-.139 3.892-.556 6.116l-2.085 11.259c-2.363 12.927-8.34 18.765-18.07 18.765-8.201 0-12.232-4.448-12.232-12.649 0-1.807.139-3.892.556-6.116l2.085-11.259c2.502-13.761 9.73-18.765 18.209-18.765 8.201 0 12.093 4.448 12.093 12.649zm155.108-8.201c0-12.51-5.977-20.294-19.182-20.294-9.591 0-17.375 2.224-24.464 6.811-2.363-3.614-6.95-6.811-14.873-6.811-8.201 0-14.178 2.919-20.572 6.672l.556-2.919c.278-1.529-.556-2.78-2.363-2.78h-12.093c-1.529 0-2.919 1.251-3.197 2.78l-12.788 72.697c-.278 1.807.556 2.919 2.224 2.919h12.788c2.502 0 3.058-1.39 3.336-2.919l9.869-56.156c6.255-3.058 10.703-4.587 13.622-4.587 5.699 0 7.923 1.529 7.923 6.672 0 1.807-.139 4.031-.695 6.811l-8.34 47.26c-.417 2.085.556 2.919 2.224 2.919h12.788c2.502 0 3.058-1.39 3.336-2.919l8.34-47.26c.556-3.475.834-7.089.695-10.008 5.56-2.641 11.398-3.475 14.039-3.475 5.977 0 8.34 1.668 8.34 7.089 0 1.668-.278 3.753-.695 6.394l-8.34 47.26c-.278 1.807.556 2.919 2.224 2.919h12.788c2.641 0 3.058-1.39 3.336-2.919l8.34-47.26c.556-3.197.834-6.116.834-8.896z"/></g></svg>

<?xml version="1.0" encoding="UTF-8"?>
<!DOCTYPE svg PUBLIC "-//W3C//DTD SVG 1.1//EN" "http://www.w3.org/Graphics/SVG/1.1/DTD/svg11.dtd">
<svg version="1.1" xmlns="http://www.w3.org/2000/svg" xmlns:xlink="http://www.w3.org/1999/xlink" x="0" y="0" width="2200" height="640" viewBox="0, 0, 2200, 640">
  <g id="Background">
    <rect x="0" y="0" width="2200" height="640" fill="#000000" fill-opacity="0"/>
  </g>
  <g id="Background"/>
  <g id="Logo">
    <path d="M66.571,515.077 C72.793,515.335 79.101,516.208 84.979,518.361 L84.978,518.306 L85.866,518.625 L163.341,443.045 L166.184,446.836 C170.213,452.285 174.477,457.261 178.978,462.237 L180.637,464.132 C181.822,465.316 182.769,466.501 183.954,467.686 L185.849,469.582 L187.745,471.477 L189.403,473.136 L191.299,475.031 L192.957,476.69 L195.09,478.585 L196.985,480.244 C232.999,510.807 278.015,528.102 325.401,529.287 C364.494,530.235 402.638,520.284 436.046,500.619 L441.969,506.779 C448.839,514.124 455.947,521.469 462.819,528.814 C421.593,555.349 373.734,568.617 324.452,567.433 C269.011,566.011 216.177,546.109 173.767,510.57 L174.002,510.096 L124.292,559.097 C126.133,564.892 126.866,570.967 126.943,577.028 C126.943,611.254 99.198,639 64.972,639 C30.746,639 3,611.254 3,577.028 C3,542.802 30.746,515.057 64.972,515.057 L66.571,515.077 z" fill="#FFFFFF"/>
    <path d="M540.294,195.455 C564.699,235.496 576.781,281.697 575.596,328.61 C574.176,385.945 552.615,440.676 514.706,483.56 L514.944,483.798 L545.507,516.256 C557.826,514.598 570.147,518.862 578.677,527.865 C593.13,543.266 592.655,567.433 577.255,582.123 C561.855,596.575 537.688,596.101 522.999,580.701 C514.469,571.697 510.915,559.14 513.284,547.057 C499.069,531.893 473.954,505.121 459.501,489.957 L456.422,486.64 L459.976,483.798 C469.215,476.453 477.745,468.397 485.563,459.393 C518.023,422.906 536.267,376.468 537.452,327.661 C538.399,290.701 529.632,254.45 511.863,222.465 L540.294,195.455 z" fill="#FFFFFF"/>
    <path d="M108.579,50.632 C119.471,50.471 129.679,54.769 137.279,62.538 C145.808,71.542 149.362,84.099 146.993,96.183 L205.752,157.784 L202.198,160.626 C192.957,167.971 184.428,176.027 176.609,185.031 C144.151,221.517 125.907,267.956 124.485,316.763 C123.537,353.723 132.304,389.974 150.074,422.196 L121.878,449.679 C97.238,409.401 84.919,363.2 86.339,315.815 C87.562,258.775 109.795,203.678 147.122,160.751 L114.77,126.983 C102.451,128.641 90.13,124.377 81.6,115.374 C67.149,99.974 67.622,75.806 83.022,61.117 C89.016,55.494 96.742,51.867 104.909,50.893 C106.127,50.748 107.355,50.719 108.579,50.632 z" fill="#FFFFFF"/>
    <path d="M603.003,1.416 C637.229,1.416 664.974,29.161 664.974,63.387 C664.974,97.613 637.229,125.359 603.003,125.359 C596.417,125.432 589.936,124.22 583.671,122.272 L583.653,122.34 L582.704,122.007 L498.594,201.853 L495.752,198.062 C491.251,192.139 486.275,186.215 481.062,180.765 L480.114,179.581 L477.508,176.975 L477.035,176.501 L475.376,174.842 L474.901,174.369 L472.769,172.237 L471.112,170.815 L469.453,169.393 L467.321,167.498 L465.661,166.076 L463.529,164.18 C427.753,134.091 382.974,117.032 336.063,115.847 C296.969,114.9 258.824,124.614 225.654,144.516 L198.644,116.321 C239.869,89.785 287.728,76.517 337.01,77.702 C392.451,79.123 445.285,99.025 487.697,134.801 L488.17,134.801 L543.87,81.922 C541.907,75.941 541.111,69.662 541.031,63.387 C541.031,29.161 568.777,1.416 603.003,1.416 z" fill="#FFFFFF"/>
    <path d="M332.896,139.756 C339.898,139.787 346.882,140.328 353.832,141.14 C453.815,153.697 524.656,244.914 512.337,344.898 C499.779,444.881 408.562,515.723 308.579,503.403 C208.594,490.845 137.753,399.628 150.074,299.645 C162.001,206.895 239.931,140.08 332.896,139.756 z M330.147,218.06 C289.672,221.299 260.383,251.917 259.355,292.596 C260.088,321.612 274.948,346.105 300.861,359.451 L286.779,425.667 L381.195,425.667 L367.132,359.44 C392.898,345.446 408.21,322.301 408.62,292.596 C408.071,250.616 375.585,219.015 333.987,217.963 L330.147,218.06 z M331.56,217.667 L331.324,217.667 L331.442,217.669 L331.56,217.667 z" fill="#FFFFFF"/>
  </g>
  <g id="Font">
    <path d="M818.88,233.646 C814.28,233.646 811.06,234.566 805.54,241.926 L729.18,341.286 L762.3,154.986 C763.68,148.086 760,145.786 754.48,145.786 L685.48,145.786 C677.2,145.786 674.9,149.926 673.98,154.986 L614.64,491.246 C613.26,498.606 617.86,501.366 622.92,501.366 L691.92,501.366 C696.98,501.366 702.04,496.306 702.96,491.246 L721.36,386.366 L761.38,491.246 C764.14,498.606 767.82,501.366 772.88,501.366 L855.68,501.366 C861.66,501.366 863.96,495.846 861.66,491.246 L802.78,362.446 L907.66,243.306 C911.34,239.626 910.88,233.646 904.44,233.646 z M1139.1,328.406 C1139.1,273.666 1107.82,229.506 1041.12,229.506 C964.3,229.506 911.86,263.546 896.68,354.626 L891.62,384.986 C890.24,393.266 889.78,401.086 889.78,408.446 C889.78,473.766 940.38,505.506 991.44,505.506 C1030.08,505.506 1061.36,500.906 1092.18,491.246 C1100,488.946 1102.3,485.726 1103.68,478.366 L1111.04,436.966 C1111.04,436.046 1111.04,435.586 1111.04,435.126 C1111.04,430.986 1108.28,429.146 1104.14,429.146 C1103.22,429.146 1102.76,429.146 1102.3,429.146 C1084.82,430.986 1038.36,432.826 1013.98,432.826 C990.98,432.826 976.26,429.606 976.26,406.606 C976.26,402.466 976.72,397.866 977.64,392.346 L1120.7,392.346 C1126.22,392.346 1131.28,388.206 1132.2,382.226 L1136.8,354.626 C1138.18,345.886 1139.1,337.146 1139.1,328.406 z M1056.3,325.186 C1056.3,330.706 1055.38,337.146 1054,343.586 L985.92,343.586 C991.44,317.366 1002.48,298.046 1028.24,298.046 C1048.94,298.046 1056.3,309.086 1056.3,325.186 z M1448.74,240.546 C1448.74,236.866 1444.6,233.646 1440.46,233.646 L1364.56,233.646 C1359.5,233.646 1354.9,237.326 1353.06,242.386 L1287.28,408.906 L1283.6,408.906 C1280.84,408.906 1280.38,406.606 1279.92,401.086 L1271.64,242.846 C1271.18,237.786 1269.34,233.646 1264.28,233.646 L1190.22,233.646 C1182.4,233.646 1178.72,237.326 1178.72,242.386 C1178.72,242.846 1178.72,243.306 1178.72,243.766 L1205.4,462.726 C1208.16,486.186 1220.12,494.466 1241.74,494.466 L1247.72,494.466 L1241.28,509.646 C1235.76,522.986 1226.1,527.126 1213.22,527.126 C1195.74,527.126 1168.14,524.366 1151.12,523.446 L1150.66,523.446 C1145.14,523.446 1139.62,528.046 1138.7,533.106 L1130.88,577.726 C1130.88,578.186 1130.88,578.646 1130.88,579.106 C1130.88,583.246 1135.02,584.626 1139.62,586.466 C1151.58,591.066 1181.94,594.746 1200.34,594.746 C1272.56,594.746 1298.78,566.226 1321.32,517.006 L1447.82,243.766 C1448.28,242.846 1448.74,241.466 1448.74,240.546 z" fill="#FFFFFF"/>
    <path d="M1653.14,244.226 C1653.14,239.626 1650.38,238.246 1645.32,236.866 C1632.9,233.646 1610.82,229.506 1583.68,229.506 C1512.84,229.506 1467.3,264.926 1452.58,350.486 L1446.6,384.986 C1445.22,394.186 1444.3,402.926 1444.3,411.206 C1444.3,465.026 1475.58,505.506 1534.92,505.506 C1562.06,505.506 1583.22,501.826 1599.32,498.146 C1605.76,496.766 1609.44,494.466 1610.36,488.486 L1619.56,436.966 C1619.56,436.506 1619.56,436.046 1619.56,435.126 C1619.56,430.986 1616.34,428.226 1612.2,428.226 C1611.74,428.226 1611.74,428.226 1611.28,428.226 C1595.18,429.146 1580.46,430.986 1557.92,430.986 C1542.28,430.986 1533.08,425.466 1533.08,404.766 C1533.08,399.246 1533.54,392.806 1534.92,384.986 L1540.9,350.486 C1547.34,312.306 1560.68,304.026 1580.46,304.026 C1603,304.026 1616.8,306.326 1632.44,307.246 C1632.9,307.246 1632.9,307.246 1633.36,307.246 C1638.42,307.246 1643.02,303.566 1643.94,298.506 L1653.14,246.526 C1653.14,245.606 1653.14,245.146 1653.14,244.226 z M1940.24,153.606 C1940.24,149.006 1936.1,145.786 1931.5,145.786 L1862.96,145.786 C1857.9,145.786 1853.3,149.926 1852.38,154.986 L1838.58,232.726 C1829.38,231.346 1813.74,229.506 1806.38,229.506 C1722.66,229.506 1680.8,264.466 1665.62,349.566 L1659.18,385.446 C1657.8,393.726 1656.88,401.546 1656.88,408.906 C1656.88,465.486 1695.98,505.506 1759,505.506 C1800.4,505.506 1839.5,499.066 1864.34,494.006 C1879.06,490.786 1881.36,488.026 1882.74,479.286 L1940.24,154.986 C1940.24,154.526 1940.24,154.066 1940.24,153.606 z M1825.7,304.486 L1803.62,430.526 C1794.88,431.906 1785.22,432.826 1771.88,432.826 C1752.1,432.826 1745.2,421.326 1745.2,403.386 C1745.2,397.866 1745.66,391.886 1747.04,385.446 L1753.48,349.566 C1758.08,322.886 1769.12,302.646 1794.88,302.646 C1805.92,302.646 1816.5,303.566 1825.7,304.486 z M2196.52,307.706 C2196.52,256.186 2175.36,229.506 2124.3,229.506 C2107.28,229.506 2081.98,233.646 2049.78,254.806 L2052.08,242.846 C2053.46,235.946 2050.24,233.646 2044.26,233.646 L1981.24,233.646 C1976.18,233.646 1971.58,237.786 1970.66,242.846 L1926.5,491.246 C1925.58,497.686 1930.64,501.366 1937.08,501.366 L2002.86,501.366 C2009.76,501.366 2014.36,496.766 2015.28,491.246 L2046.56,313.226 C2054.84,308.626 2071.86,303.106 2085.66,303.106 C2101.3,303.106 2107.28,306.786 2107.28,321.046 C2107.28,328.866 2105.44,336.686 2104.06,344.506 L2078.3,491.246 C2077.38,495.846 2078.3,501.366 2086.12,501.366 L2155.12,501.366 C2160.64,501.366 2165.7,496.306 2166.62,491.246 L2191.92,347.726 C2194.22,334.846 2196.52,319.666 2196.52,307.706 z" fill="#FFFFFF"/>
    <path d="M1826.663,596.957 C1826.663,595.706 1825.829,594.872 1824.439,594.872 L1812.068,594.872 C1810.539,594.872 1809.01,595.984 1808.732,597.513 L1806.091,613.22 C1806.091,613.359 1806.091,613.498 1806.091,613.776 C1806.091,615.027 1806.925,616 1808.315,616 L1820.686,616 C1822.215,616 1823.744,614.749 1824.022,613.22 L1826.663,597.513 C1826.663,597.374 1826.663,597.235 1826.663,596.957 z M1905.182,536.631 C1887.112,536.631 1872.378,544.137 1867.513,570.408 L1865.15,583.335 C1864.733,585.837 1864.455,588.2 1864.455,590.424 C1864.455,606.27 1875.158,617.112 1891.004,617.112 C1899.483,617.112 1905.877,616.139 1909.213,615.305 C1911.993,614.749 1912.271,613.915 1912.688,611.691 L1914.356,602.656 C1914.634,600.849 1913.939,600.293 1911.854,600.571 C1906.85,601.127 1902.68,601.544 1893.645,601.544 C1887.946,601.544 1882.803,599.737 1882.803,590.285 C1882.803,588.339 1882.942,585.976 1883.498,583.335 L1885.861,570.408 C1888.502,555.952 1895.869,552.199 1902.402,552.199 C1911.437,552.199 1915.746,552.616 1920.194,553.172 C1922.418,553.589 1923.113,552.616 1923.391,551.087 L1925.059,542.052 C1925.476,539.689 1924.92,538.994 1922.696,538.438 C1919.638,537.604 1913.661,536.631 1905.182,536.631 z M2017.2,564.014 C2017.2,549.419 2008.443,536.631 1989.4,536.631 C1967.577,536.631 1954.233,548.446 1950.063,571.242 L1947.978,582.501 C1947.561,584.725 1947.422,586.949 1947.422,589.173 C1947.422,603.768 1956.318,617.112 1975.222,617.112 C1997.045,617.112 2010.111,605.436 2014.42,582.501 L2016.505,571.242 C2016.922,568.879 2017.2,566.377 2017.2,564.014 z M1998.713,565.126 C1998.713,566.933 1998.574,569.018 1998.157,571.242 L1996.072,582.501 C1993.709,595.428 1987.732,601.266 1978.002,601.266 C1969.801,601.266 1965.77,596.818 1965.77,588.617 C1965.77,586.81 1965.909,584.725 1966.326,582.501 L1968.411,571.242 C1970.913,557.481 1978.141,552.477 1986.62,552.477 C1994.821,552.477 1998.713,556.925 1998.713,565.126 z M2153.821,556.925 C2153.821,544.415 2147.844,536.631 2134.639,536.631 C2125.048,536.631 2117.264,538.855 2110.175,543.442 C2107.812,539.828 2103.225,536.631 2095.302,536.631 C2087.101,536.631 2081.124,539.55 2074.73,543.303 L2075.286,540.384 C2075.564,538.855 2074.73,537.604 2072.923,537.604 L2060.83,537.604 C2059.301,537.604 2057.911,538.855 2057.633,540.384 L2044.845,613.081 C2044.567,614.888 2045.401,616 2047.069,616 L2059.857,616 C2062.359,616 2062.915,614.61 2063.193,613.081 L2073.062,556.925 C2079.317,553.867 2083.765,552.338 2086.684,552.338 C2092.383,552.338 2094.607,553.867 2094.607,559.01 C2094.607,560.817 2094.468,563.041 2093.912,565.821 L2085.572,613.081 C2085.155,615.166 2086.128,616 2087.796,616 L2100.584,616 C2103.086,616 2103.642,614.61 2103.92,613.081 L2112.26,565.821 C2112.816,562.346 2113.094,558.732 2112.955,555.813 C2118.515,553.172 2124.353,552.338 2126.994,552.338 C2132.971,552.338 2135.334,554.006 2135.334,559.427 C2135.334,561.095 2135.056,563.18 2134.639,565.821 L2126.299,613.081 C2126.021,614.888 2126.855,616 2128.523,616 L2141.311,616 C2143.952,616 2144.369,614.61 2144.647,613.081 L2152.987,565.821 C2153.543,562.624 2153.821,559.705 2153.821,556.925 z" fill="#FFFFFF"/>
  </g>
</svg>
